client/public/assets/curriculum/cur-landing-ladder-1.svg

<svg fill="none" viewBox="0 0 600 367" version="1.1" id="svg29" xmlns="http://www.w3.org/2000/svg">
  <defs id="defs29" />
  <ellipse cx="212.5" cy="333.5" fill="#FCEFE2" rx="212.5" ry="11.5" id="ellipse1" />
  <path fill="#F4D4B8"
    d="M87.786 315.778c1.482-2.222.988-2.778.988-2.778h8.398s-.317 3.08 0 5c.302 1.822 1.24 2.611 1.483 4.444.17 1.288.683 2.283 0 3.334-.614.943-2.47 1.111-2.47 1.111H78.892v-5.556s7.41-3.333 8.893-5.555M74.446 328v-5s-1.634.417-2.47 1.111c-1.118.93-1.976 3.333-1.976 3.333zM134.5 318c1.5-2 .5-5 .5-5h9s.678 1.772 1 3.5c.305 1.64 0 3.5 3.5 6 .953.681 1.192 3.055.5 4-.621.849-2.5 1-2.5 1l-19.5.5v-5.5s6-2.5 7.5-4.5M124.5 328.5V324s-1.654.375-2.5 1c-1.132.837-2 3-2 3zM111 135v-2.5l6.5-1.5.5 4h4.5s-4.657 7.172-7 6-5.157-4.828-7.5-6z"
    id="path1" />
  <path id="path2" style="fill:#f9cfa6"
    d="M 106.33984 134.99414 C 104.18327 135.0127 99.529747 135.16403 96.8125 136.08203 C 92.343504 137.59003 90.048668 138.72166 86.013672 141.47266 C 79.316679 146.03665 74.083984 158.41016 74.083984 158.41016 L 71.392578 167.34375 L 69 180.69336 C 69 180.69336 69.52958 182.23592 71.392578 183.41992 C 73.262576 184.60892 86.013672 190.5 86.013672 190.5 L 91.646484 190.5 L 91.341797 199.83398 C 108.58078 205.79598 137.54392 202.46376 138.04492 197.00977 L 138.35742 187.2832 L 135.63086 165.5332 C 136.23986 169.9592 139.16501 187.0932 148 187.2832 C 155.47599 187.4432 163 175.38086 163 175.38086 L 171 154.5 L 160 143 L 152 158.41016 L 147 149.5 C 147 149.5 142.993 144.037 139.5 141 C 136.693 138.559 130 136.5 130 136.5 L 123 134.99805 C 123 134.99805 121.5 136.99805 118.5 138.99805 C 116.665 140.22105 115.5 139.99805 115.5 139.99805 C 114 138.99805 111.71484 137.39453 111.71484 137.39453 L 107.5 134.99609 C 107.5 134.99609 107.0587 134.98795 106.33984 134.99414 z M 93.878906 160.50586 L 93.878906 175.58008 L 87.5 174.5 C 87.5 174.5 87.717122 172.27267 88.226562 170.05664 C 88.434106 169.15384 88.69056 168.25326 89 167.50586 C 90.272999 164.42686 93.878906 160.50586 93.878906 160.50586 z " />
  <path stroke="#000" stroke-linecap="round" stroke-width=".5" d="m152 158.5 8-15.5 11 12" id="path3" />
  <g id="g30" clip-path="none" />
  <path stroke="#000" stroke-linecap="round"
    d="m110.001 178.5-.056 10s12.055 4 13.556 3.5.499-.5.499-.5m3.5-10s1.502.5-.499 1-9 .5-9 .5M129 185s1.001.5-.499 1-10-.5-10-.5m8.5 2.5s1.001 1-1 1-8-1.5-8-1.5M116 179.5s1.971-1.039 3-2c.914-.853 2-2.5 2-2.5"
    id="path5" />
  <path fill="#F4D4B8"
    d="M110.001 178.499s12.308-6.862 10.5-3c-.39.834-1.17 1.595-2 2.225-1.426 1.082-3 1.775-3 1.775l11.5 1.5s2.001 1 0 1.5-9 .5-9 .5l10.5 1.5s1.5 1 0 1.5-10-.5-10-.5l8 1.5s1.501 2-.5 2-8-1.5-8-1.5l6 3s1.001 1-.5 1.5-13.556-3.5-13.556-3.5z"
    id="path6" />
  <path stroke="#000" stroke-linecap="round"
    d="m161.025 143.251 7.477 8.749s11.828-6.866 12.777-8.339.098-.743.098-.743m-3.541-10.139s1.601-.715.228 1.122-7.316 6.936-7.316 6.936m10.641-6.495s1.176-.35.228 1.123-8.816 6.905-8.816 6.905m8.844-4.295s1.501.03-.197 1.488c-1.699 1.457-7.77 4.689-7.77 4.689"
    id="path7" />
  <path fill="#F4D4B8"
    d="M162.118 143.6s-5.011-10.514-1.118-8.593c1 .493 5.5 4.06 5.5 4.06l10-6.567s2.986-.795 1.724 1.068-6.871 7.099-6.871 7.099l9.438-6.76s1.885-.391 1.024 1.097-8.355 7.116-8.355 7.116l7.435-4.889s2.567.339.964 1.836-7.435 4.889-7.435 4.889l6.856-2.296s1.484-.018.623 1.47c-.862 1.489-13.402 8.359-13.402 8.359z"
    id="path8" />
  <path stroke="#000" stroke-linecap="round" stroke-width=".5"
    d="M168.971 145.526s.054-2.064-.31-3.424c-.323-1.208-2.118-2.938-2.118-2.938M94 160.5v15" id="path9" />
  <path fill="#94B1EB"
    d="M76.086 262.22c1.118-24.967 15.414-63.693 15.414-63.693s-1.43 4.472 21.043 4.473c22.474.001 24.971-5 24.971-5s-1.489 29.793 0 48.787C139.571 273.018 150 313 150 313h-30.964l-11.487-74.178-7.491 23.398 9.988 50.78H81.579s-6.386-30.854-5.493-50.78"
    id="path10" />
  <path stroke="#000" stroke-linecap="round" stroke-width=".5"
    d="M91.868 199.965S91.33 202.999 113.5 203s24.184-5 24.184-5-1.469 29.41 0 48.16C139.712 272.054 150 311.522 150 311.522m-67 1.475s8.404.007 13.794 0c5.583-.007 13.302 0 13.302 0L105.5 287l-5-25 7.625-23.703M109.5 178.5 87 175"
    id="path11" />
  <path stroke="#000" stroke-linecap="round" stroke-width=".5" d="m92 191-.5 8.5s1 3.5 23 3.5 23.5-5.5 23.5-5.5"
    id="path12" />
  <path fill="#F4D4B8"
    d="M123.717 119.888c-3.144 9.028-3.194 10.114-11.196 13.124-7.143-2.463-10.287-3.282-11.144-13.679 2.286-10.394 8.633-14.958 15.103-14.958 4.001 1.915 9.895 5.721 7.237 15.513"
    id="path13" />
  <path stroke="#000" stroke-linecap="round" stroke-linejoin="round" stroke-width=".5"
    d="M109.547 124.211c2.6 1.916 4.159 2.476 7.228 1.95M113.437 123.105h3.336l-.278-6.408c.434-.435.734-.946 1.112-1.393.47-.557.625-.595 1.112-.836 1.168-.577 3.336 0 3.336 0l.556 1.393m-15.569-.278s1.287-.859 2.224-1.115c1.257-.343 2.118-.463 3.337 0 .873.333 1.946 1.393 1.946 1.393m-11.61 10.387s3.125 5.772 9.107 6.33c1.209.112 3.059-.558 3.059-.558"
    id="path14" />
  <ellipse cx="119.555" cy="117.797" fill="#0F0F0F" rx=".834" ry=".836" id="ellipse14" />
  <ellipse cx="111.586" cy="117.18" fill="#0F0F0F" rx=".834" ry=".836" id="ellipse15" />
  <path fill="#000" fill-rule="evenodd"
    d="M110.702 96.884c-1.374-2.107-4.44-3-7.41-1.995-3.413 1.154-5.408 4.375-4.455 7.195.325.961.951 1.752 1.77 2.331-1.141 2.172-1.793 4.628-1.793 7.115 0 1.271.023 2.909.568 3.12 1.001 0 1.644-.214 2.197-.589l.07.015s.821 5.905-.567 9.644q-.119.321-.225.624c-.316.893-.596 1.682-1.193 2.496-1.167 1.591-4.539 3.688-4.539 3.688s2.925-.187 3.971-.567c2.067-.751 2.844-2.225 3.688-4.255.309-.745.567-1.986.567-1.986v-5.957c0-.893 1.135-1.985 1.135-1.985l1.111-5.279q.323-.228.668-.467l8.182-4.522c.922-.316 1.78-.503 2.521-.504 1.132 0 1.879 1.154 2.574 2.228.369.571.724 1.119 1.114 1.459.857.748 1.586 1.55 2.2 2.27q.335.394.626.747h.001l.348.419c.161.672.217 1.707-.009 3.302-.614 4.33-.568 5.956-.568 5.956s.805-1.342 1.372-2.193c.481-.722.384-4.765.343-5.975.488.191.698-.514.697-2.82 0-1.821-.353-3.558-.995-5.146 1.674-.478 3.012-1.595 3.545-3.169.953-2.82-1.042-6.041-4.455-7.195-3.184-1.076-6.478.026-7.68 2.468a13.3 13.3 0 0 0-3.876-.573q-.762 0-1.503.1"
    clip-rule="evenodd" id="path15" />
  <path fill="#83BB9E" d="M74.61 322.5s1.176-.709 2-1c.938-.331 2.5-.5 2.5-.5v7.5h-4.5z" id="path16" />
  <path fill="#83BB9E"
    d="m70.61 326-.5 1 30.5-.5s.5 1.195.5 2-.5 2-.5 2h-31s-.385-.579-.5-1c-.154-.565-.139-.931 0-1.5.23-.949 1.5-2 1.5-2"
    id="path17" />
  <path stroke="#000" stroke-width=".5" d="M100.609 326.5h-21.5v-5" id="path18" />
  <path fill="#83BB9E" d="M124.61 323.5s-1.823.791-1 .5c.39-.138.924-1.515 2-2 1.513-.682 3.108-1 3.108-1l.002 8h-4.5z"
    id="path19" />
  <path fill="#83BB9E"
    d="m121.109 326.5-.5 1 29.61-.5s.5 1.195.5 2-.5 2-.5 2h-31s-.385-.579-.5-1c-.154-.565-.138-.931 0-1.5.231-.949 2.39-2 2.39-2"
    id="path20" />
  <path stroke="#000" stroke-width=".5" d="M150.219 327h-21.5v-5" id="path21" />
  <text id="text29">
    <tspan x="194.219" y="124" id="tspan23">
      How can you
    </tspan>
    <tspan x="194.219" y="164" id="tspan25">
      <tspan class="color" id="tspan24">boost your employability </tspan>
    </tspan>
    <tspan x="194.219" y="204" id="tspan27">
      with the MDN
    </tspan>
    <tspan x="194.219" y="244" id="tspan29">
      Curriculum?
    </tspan>
  </text>
</svg>

<?xml version="1.0" encoding="UTF-8" standalone="no"?>
<svg viewBox="0 0 500 367" fill="none" version="1.1" id="svg69" xmlns="http://www.w3.org/2000/svg">
  <g opacity="0.8" id="g1" />
  <ellipse cx="212.5" cy="333.5" rx="212.5" ry="11.5" fill="#FCEFE2" id="ellipse1" />
  <path
    d="M87.7857 315.778C89.2678 313.556 88.7738 313 88.7738 313H97.1725C97.1725 313 96.8547 316.08 97.1725 318C97.4743 319.822 98.4121 320.611 98.6547 322.444C98.825 323.732 99.3383 324.727 98.6547 325.778C98.0411 326.721 96.1844 326.889 96.1844 326.889H78.8928V321.333C78.8928 321.333 86.3035 318 87.7857 315.778Z"
    fill="#F4D4B8" id="path2" />
  <path
    d="M74.4464 328V323C74.4464 323 72.8116 323.417 71.9762 324.111C70.8575 325.041 70 327.444 70 327.444L74.4464 328Z"
    fill="#F4D4B8" id="path3" />
  <path
    d="M134.5 318C136 316 135 313 135 313H144C144 313 144.678 314.772 145 316.5C145.305 318.14 145 320 148.5 322.5C149.453 323.181 149.692 325.555 149 326.5C148.379 327.349 146.5 327.5 146.5 327.5L127 328V322.5C127 322.5 133 320 134.5 318Z"
    fill="#F4D4B8" id="path4" />
  <path d="M124.5 328.5V324C124.5 324 122.846 324.375 122 325C120.868 325.837 120 328 120 328L124.5 328.5Z"
    fill="#F4D4B8" id="path5" />
  <path
    d="M111 135V132.5L117.5 131L118 135H122.5C122.5 135 117.843 142.172 115.5 141C113.157 139.828 110.343 136.172 108 135H111Z"
    fill="#F4D4B8" id="path6" />
  <path
    d="M91.3417 199.834L91.6475 190.5H86.0132C86.0132 190.5 73.2625 184.608 71.3925 183.419C69.5297 182.235 69 180.694 69 180.694L71.3925 167.343L74.084 158.411C74.084 158.411 79.3174 146.037 86.0132 141.473C90.0487 138.722 92.3447 137.591 96.8125 136.083C100.436 134.859 107.5 134.997 107.5 134.997L111.715 137.394C111.715 137.394 114 138.999 115.5 139.999C115.5 139.999 116.665 140.222 118.5 138.999C121.5 136.999 123 134.999 123 134.999L130 136.5C130 136.5 136.693 138.559 139.5 141C142.993 144.037 147 149.5 147 149.5L152 158.411L160 143L171 154.5L163 175.381C163 175.381 155.476 187.444 148 187.284C139.165 187.094 136.239 169.96 135.63 165.534L138.358 187.284L138.045 197.01C137.544 202.464 108.581 205.796 91.3417 199.834Z"
    fill="#F9CFA6" id="path7" />
  <path d="M152 158.5L160 143L171 155" stroke="black" stroke-width="0.5" stroke-linecap="round" id="path8" />
  <path
    d="M87.4992 174.5C87.4992 174.5 87.9312 170.087 88.9992 167.505C90.273 164.426 93.878 160.505 93.878 160.505L93.878 175.581L87.4992 174.5Z"
    fill="white" id="path9" />
  <path
    d="M110.001 178.5L109.945 188.5C109.945 188.5 122 192.5 123.501 192C125.002 191.5 124 191.5 124 191.5M127.5 181.5C127.5 181.5 129.002 182 127.001 182.5C125 183 118.001 183 118.001 183M129 185C129 185 130.001 185.5 128.501 186C127.001 186.5 118.501 185.5 118.501 185.5M127.001 188C127.001 188 128.002 189 126.001 189C124 189 118.001 187.5 118.001 187.5"
    stroke="black" stroke-linecap="round" id="path10" />
  <path d="M116 179.5C116 179.5 117.971 178.461 119 177.5C119.914 176.647 121 175 121 175" stroke="black"
    stroke-linecap="round" id="path11" />
  <path
    d="M110.001 178.499C110.001 178.499 122.309 171.637 120.501 175.499C120.111 176.333 119.331 177.094 118.501 177.724C117.075 178.806 115.501 179.499 115.501 179.499L127.001 180.999C127.001 180.999 129.002 181.999 127.001 182.499C125 182.999 118.001 182.999 118.001 182.999L128.501 184.499C128.501 184.499 130.001 185.499 128.501 185.999C127.001 186.499 118.501 185.499 118.501 185.499L126.501 186.999C126.501 186.999 128.002 188.999 126.001 188.999C124 188.999 118.001 187.499 118.001 187.499L124.001 190.499C124.001 190.499 125.002 191.499 123.501 191.999C122 192.499 109.945 188.499 109.945 188.499L110.001 178.499Z"
    fill="#F4D4B8" id="path12" />
  <path
    d="M161.025 143.251L168.502 152C168.502 152 180.33 145.134 181.279 143.661C182.227 142.188 181.377 142.918 181.377 142.918M177.836 132.779C177.836 132.779 179.437 132.064 178.064 133.901C176.691 135.738 170.748 140.837 170.748 140.837M181.389 134.342C181.389 134.342 182.565 133.992 181.617 135.465C180.669 136.937 172.801 142.37 172.801 142.37M181.645 138.075C181.645 138.075 183.146 138.105 181.448 139.563C179.749 141.02 173.678 144.252 173.678 144.252"
    stroke="black" stroke-linecap="round" id="path13" />
  <path
    d="M162.118 143.6C162.118 143.6 157.107 133.086 161 135.007C162 135.5 166.5 139.067 166.5 139.067L176.5 132.5C176.5 132.5 179.486 131.705 178.224 133.568C176.962 135.43 171.353 140.667 171.353 140.667L180.791 133.907C180.791 133.907 182.676 133.516 181.815 135.004C180.954 136.491 173.46 142.12 173.46 142.12L180.895 137.231C180.895 137.231 183.462 137.57 181.859 139.067C180.255 140.564 174.424 143.956 174.424 143.956L181.28 141.66C181.28 141.66 182.764 141.642 181.903 143.13C181.041 144.619 168.501 151.489 168.501 151.489L162.118 143.6Z"
    fill="#F4D4B8" id="path14" />
  <path
    d="M168.971 145.526C168.971 145.526 169.025 143.462 168.661 142.102C168.338 140.894 166.543 139.164 166.543 139.164"
    stroke="black" stroke-width="0.5" stroke-linecap="round" id="path15" />
  <path d="M94 160.5V175.5" stroke="black" stroke-width="0.5" stroke-linecap="round" id="path16" />
  <path
    d="M76.0855 262.22C77.2036 237.253 91.5 198.527 91.5 198.527C91.5 198.527 90.0693 202.999 112.543 203C135.017 203.001 137.514 198 137.514 198C137.514 198 136.025 227.793 137.514 246.787C139.571 273.018 150 313 150 313H119.036L107.549 238.822L100.058 262.22L110.046 313H81.5792C81.5792 313 75.1932 282.146 76.0855 262.22Z"
    fill="#94B1EB" id="path17" />
  <path
    d="M91.8676 199.965C91.8676 199.965 91.3309 202.999 113.5 203C135.669 203.001 137.684 198 137.684 198C137.684 198 136.215 227.41 137.684 246.16C139.712 272.054 150 311.522 150 311.522M83 312.997C83 312.997 91.4037 313.004 96.7941 312.997C102.377 312.99 110.096 312.997 110.096 312.997L105.5 287L100.5 262L108.125 238.297"
    stroke="black" stroke-width="0.5" stroke-linecap="round" id="path18" />
  <path d="M109.5 178.5L87 175" stroke="black" stroke-width="0.5" stroke-linecap="round" id="path19" />
  <path d="M92 191L91.5 199.5C91.5 199.5 92.5 203 114.5 203C136.5 203 138 197.5 138 197.5" stroke="black"
    stroke-width="0.5" stroke-linecap="round" id="path20" />
  <path
    d="M123.717 119.888C120.573 128.916 120.523 130.002 112.521 133.012C105.378 130.549 102.234 129.73 101.377 119.333C103.663 108.939 110.01 104.375 116.48 104.375C120.481 106.29 126.375 110.096 123.717 119.888Z"
    fill="#F4D4B8" id="path21" />
  <path d="M109.547 124.211C112.147 126.127 113.706 126.687 116.775 126.161" stroke="black" stroke-width="0.5"
    stroke-linecap="round" stroke-linejoin="round" id="path22" />
  <path
    d="M113.437 123.105H116.773L116.495 116.697C116.929 116.262 117.229 115.751 117.607 115.304C118.077 114.747 118.232 114.709 118.719 114.468C119.887 113.891 122.055 114.468 122.055 114.468L122.611 115.861M107.042 115.583C107.042 115.583 108.329 114.724 109.266 114.468C110.523 114.125 111.384 114.005 112.603 114.468C113.476 114.801 114.549 115.861 114.549 115.861M102.939 126.248C102.939 126.248 106.064 132.02 112.046 132.578C113.255 132.69 115.105 132.02 115.105 132.02"
    stroke="black" stroke-width="0.5" stroke-linecap="round" stroke-linejoin="round" id="path23" />
  <ellipse cx="119.555" cy="117.797" rx="0.834189" ry="0.835943" fill="#0F0F0F" id="ellipse23" />
  <ellipse cx="111.586" cy="117.18" rx="0.834189" ry="0.835943" fill="#0F0F0F" id="ellipse24" />
  <path fill-rule="evenodd" clip-rule="evenodd"
    d="M110.702 96.8838C109.328 94.7772 106.262 93.8849 103.292 94.8888C99.8785 96.0426 97.884 99.2638 98.837 102.084C99.1621 103.045 99.7881 103.836 100.607 104.415C99.4657 106.587 98.8139 109.043 98.8141 111.53C98.8143 112.801 98.837 114.439 99.3818 114.65C100.383 114.65 101.026 114.436 101.579 114.061L101.649 114.076C101.649 114.076 102.47 119.981 101.082 123.72C101.002 123.934 100.929 124.142 100.857 124.344C100.541 125.237 100.261 126.026 99.6636 126.84C98.4968 128.431 95.125 130.528 95.125 130.528C95.125 130.528 98.0499 130.341 99.0963 129.961C101.163 129.21 101.94 127.736 102.784 125.706C103.093 124.961 103.351 123.72 103.351 123.72V117.763C103.351 116.87 104.486 115.778 104.486 115.778L105.597 110.499C105.812 110.347 106.035 110.191 106.265 110.032L114.447 105.51C115.369 105.194 116.227 105.007 116.968 105.006C118.1 105.006 118.847 106.16 119.542 107.234C119.911 107.805 120.266 108.353 120.656 108.693C121.513 109.441 122.242 110.243 122.856 110.963C123.08 111.225 123.288 111.476 123.482 111.71L123.482 111.71L123.483 111.71C123.605 111.857 123.721 111.997 123.831 112.129C123.992 112.801 124.048 113.836 123.822 115.431C123.208 119.761 123.254 121.387 123.254 121.387C123.254 121.387 124.059 120.045 124.626 119.194C125.107 118.472 125.01 114.429 124.969 113.219C125.457 113.41 125.667 112.705 125.666 110.399C125.666 108.578 125.313 106.841 124.671 105.253C126.345 104.775 127.683 103.658 128.216 102.084C129.169 99.2638 127.174 96.0426 123.761 94.8888C120.577 93.8127 117.283 94.9154 116.081 97.3569C114.853 96.9844 113.553 96.7843 112.205 96.7845C111.697 96.7845 111.196 96.8184 110.702 96.8838Z"
    fill="black" id="path24" />
  <path
    d="M74.6094 322.5C74.6094 322.5 75.7859 321.791 76.6094 321.5C77.5483 321.169 79.1094 321 79.1094 321V328.5H74.6094V322.5Z"
    fill="#83BB9E" id="path25" />
  <path
    d="M70.6098 326L70.1098 327L100.61 326.5C100.61 326.5 101.11 327.695 101.11 328.5C101.11 329.305 100.61 330.5 100.61 330.5H69.6098C69.6098 330.5 69.2247 329.921 69.1098 329.5C68.9557 328.935 68.9713 328.569 69.1098 328C69.3405 327.051 70.6098 326 70.6098 326Z"
    fill="#83BB9E" id="path26" />
  <path d="M100.609 326.5H79.1094V321.5" stroke="black" stroke-width="0.5" id="path27" />
  <path
    d="M124.61 323.5C124.61 323.5 122.787 324.291 123.61 324C124 323.862 124.534 322.485 125.61 322C127.123 321.318 128.718 321 128.718 321L128.72 329H124.22L124.61 323.5Z"
    fill="#83BB9E" id="path28" />
  <path
    d="M121.109 326.5L120.609 327.5L150.219 327C150.219 327 150.719 328.195 150.719 329C150.719 329.805 150.219 331 150.219 331H119.219C119.219 331 118.834 330.421 118.719 330C118.565 329.435 118.581 329.069 118.719 328.5C118.95 327.551 121.109 326.5 121.109 326.5Z"
    fill="#83BB9E" id="path29" />
  <path d="M150.219 327H128.719V322" stroke="black" stroke-width="0.5" id="path30" />
  <defs id="defs69">
    <rect x="194.21952" y="103.09013" width="272.81863" height="183.96747" id="rect69" />
  </defs>
  <text id="text69">
    <tspan x="194.21875" y="124" id="tspan2">
      <tspan id="tspan1">How can you <tspan class="color">boost</tspan></tspan>
    </tspan>
    <tspan x="194.21875" y="164" id="tspan4">
      <tspan id="tspan3" class="color">your employability </tspan>
    </tspan>
    <tspan x="194.21875" y="204" id="tspan6">
      <tspan id="tspan5">with the MDN </tspan>
    </tspan>
    <tspan x="194.21875" y="244" id="tspan8">
      <tspan id="tspan7">Curriculum?</tspan>
    </tspan>
  </text>
</svg>
